packages/core/src/svgs/tokens/branded/KUJI.svg

<svg width="24" height="24" viewBox="0 0 24 24" fill="none" xmlns="http://www.w3.org/2000/svg">
<path d="M22 5.74997V4.49998H17.3249C17.113 3.65704 16.8669 2.82302 16.5874 2L15.0812 2.2625C15.3624 2.98124 15.6249 3.76249 15.8436 4.49998H11.3749V5.74997H22ZM10.3374 16.3749V7.34372H8.13747C8.59373 6.66872 9.04996 5.84373 9.51246 4.84374V3.87499H5.90623C6.10623 3.43749 6.28123 2.93749 6.45623 2.48125L5.05623 2.04375C4.49809 4.00227 3.44563 5.78433 2 7.21873L2.325 8.76247C2.6125 8.49997 2.98749 8.23747 3.24999 7.95622V16.3749H10.3374ZM6.63122 7.34998H3.69999C4.29108 6.6516 4.82606 5.90762 5.29999 5.12498H8.04997C7.62703 5.89735 7.15306 6.64066 6.63122 7.34998ZM15.6249 22C16.7186 22 16.9999 21.3936 16.9999 20.1937V13.8749H20.7499V7.62497H12.2687V13.8749H15.7499V19.8249C15.7499 20.3687 15.5313 20.7499 15.0938 20.7499C14.5937 20.7499 14.0687 20.7062 13.5437 20.6437L13.85 22H15.6249ZM6.37498 11.3749H4.49998V8.62496H6.37498V11.3749ZM8.87496 11.3749H7.62497V8.62496H8.87496V11.3749ZM19.5 12.625H13.7499V8.87496H19.5V12.625ZM8.87496 15.125H7.62497V12.625H8.87496V15.125ZM6.37498 15.125H4.51249V12.625H6.37498V15.125ZM11.6937 21.3749C12.7326 19.7034 13.5676 17.9136 14.1811 16.0437L12.9187 15.4375C12.3186 17.2197 11.5109 18.9251 10.5124 20.5186L11.6937 21.3749Z" fill="#E53935"/>
<path d="M22 19.9499L20.8125 20.7499C20.0735 19.0467 19.2173 17.3971 18.2499 15.8125L19.4374 15.125C20.3973 16.6749 21.2533 18.2868 22 19.9499ZM10.75 19.8563L9.73748 20.1249C9.49685 19.1738 9.20898 18.235 8.87496 17.3125L9.84364 17C10.175 17.8124 10.4624 18.7686 10.75 19.8563ZM8.87496 21.2312L7.69998 21.375C7.58748 19.5375 7.36247 18.1249 6.99998 17.1438L8.12498 17C8.49373 18.0374 8.73747 19.4437 8.87496 21.2312ZM6.37498 21.2374L5.32499 21.375C5.28748 19.55 5.22499 18.1249 5.12499 17.1375L6.09373 17C6.23124 18.0374 6.33747 19.4562 6.37498 21.2374ZM4.49998 17.1687C4.34374 18.9813 3.99999 20.5875 3.44999 22L2 21.5937C2.61323 20.1332 2.97865 18.5807 3.08125 17L4.49998 17.1687Z" fill="#E53935"/>
<path d="M13.7625 5.12497C17.4812 5.12497 19.1374 6.90621 19.5 7.79996C19.1624 11.1312 16.3125 11.9562 14.85 12.325C9.73749 13.9687 9.40616 15.6563 9.40616 16.8061C9.40616 17.9625 10.3249 18.5749 10.575 18.7812C11.0374 17.8812 11.9625 17.1812 12.5063 17.1812C12.0874 17.9187 12.925 19.2375 12.925 19.6874C13.4533 19.7244 13.9681 19.8713 14.4362 20.1189C14.9045 20.3664 15.3157 20.7091 15.6437 21.125C15.3687 21.2125 14.6 21.3749 13.7625 21.3749C7.43749 21.3749 5.3 15 5.3 13.5186C5.3 12.3313 5.6625 11.1312 5.84374 10.6812C5.38125 10.7875 4.34375 11.0062 3.875 11.0062C4.07501 9.52501 5.9375 8.8562 6.84999 8.70621C7.13124 8.31871 7.78749 7.48122 8.18749 7.18121C7.93749 6.99997 6.24999 6.99997 5.75 6.99997C6.7875 5.38747 9.62491 5.34372 10.7875 5.57497C11.2313 5.42498 12.4563 5.12497 13.7625 5.12497Z" fill="#607D8B"/>
<path d="M17.6249 8.09995C16.3909 7.26669 14.9056 6.88836 13.4234 7.02974C11.9411 7.17113 10.5541 7.82344 9.49987 8.87495H10.6562C11.3874 8.87495 12.0811 8.09995 13.6998 8.09995C14.9937 8.09995 16.0874 8.41246 16.4686 8.5687C16.8561 8.50621 17.6249 8.3187 17.6249 8.09995ZM7.46242 15.6749C7.46242 14.4687 7.98742 12.4125 8.24992 11.5375C6.72493 10.4624 7.04993 15.0812 6.99993 15.3561C6.95618 15.6374 7.32493 15.875 7.46242 15.6749ZM6.99993 11.9999V10.75C6.41243 10.75 6.34368 11.5812 6.38743 11.9999H6.99993ZM6.37493 13.8749V11.9999C5.78743 11.9999 5.71869 13.25 5.76244 13.8749H6.37493Z" fill="white"/>
<path d="M18.875 7.3562C14.1749 4.06872 9.83128 6.5812 8.25 8.24995H8.775C9.58745 7.67494 11.7687 6.53121 13.9249 6.53121C16.0812 6.53121 17.6688 7.39371 18.1938 7.81871C18.4186 7.71245 18.875 7.46871 18.875 7.3562Z" fill="white"/>
</svg>

<svg xmlns="http://www.w3.org/2000/svg" width="24" height="24" fill="none" viewBox="0 0 24 24">
    <path fill="#E53935" d="M22 5.75V4.5h-4.675a32 32 0 0 0-.738-2.5l-1.506.263c.281.718.544 1.5.763 2.237h-4.47v1.25zM10.337 16.375V7.344h-2.2c.457-.675.913-1.5 1.375-2.5v-.969H5.906c.2-.438.375-.938.55-1.394l-1.4-.437A11.9 11.9 0 0 1 2 7.219l.325 1.543c.287-.262.662-.525.925-.806v8.419zM6.631 7.35H3.7a17.4 17.4 0 0 0 1.6-2.225h2.75A20 20 0 0 1 6.631 7.35M15.625 22C16.719 22 17 21.394 17 20.194v-6.32h3.75V7.626h-8.481v6.25h3.48v5.95c0 .544-.218.925-.655.925-.5 0-1.025-.044-1.55-.106L13.85 22zm-9.25-10.625H4.5v-2.75h1.875zm2.5 0h-1.25v-2.75h1.25zm10.625 1.25h-5.75v-3.75h5.75zm-10.625 2.5h-1.25v-2.5h1.25zm-2.5 0H4.512v-2.5h1.863zm5.319 6.25a24.7 24.7 0 0 0 2.487-5.331l-1.262-.607a24 24 0 0 1-2.407 5.082z"/>
    <path fill="#E53935" d="m22 19.95-1.187.8a40 40 0 0 0-2.563-4.937l1.187-.688A41 41 0 0 1 22 19.95m-11.25-.094-1.013.269q-.36-1.428-.862-2.812L9.844 17c.331.812.618 1.769.906 2.856m-1.875 1.375-1.175.144c-.113-1.837-.338-3.25-.7-4.231L8.125 17c.369 1.037.612 2.444.75 4.231m-2.5.006-1.05.138c-.038-1.825-.1-3.25-.2-4.238L6.094 17c.137 1.037.243 2.456.281 4.237M4.5 17.17C4.344 18.98 4 20.587 3.45 22L2 21.594A14.3 14.3 0 0 0 3.081 17z"/>
    <path fill="#607D8B" d="M13.763 5.125c3.718 0 5.374 1.781 5.737 2.675-.338 3.331-3.187 4.156-4.65 4.525-5.113 1.644-5.444 3.331-5.444 4.481 0 1.156.919 1.769 1.169 1.975.462-.9 1.388-1.6 1.931-1.6-.419.738.419 2.057.419 2.506a3.8 3.8 0 0 1 2.719 1.438c-.275.087-1.044.25-1.882.25C7.437 21.375 5.3 15 5.3 13.519c0-1.188.362-2.388.544-2.838-.463.107-1.5.325-1.969.325.2-1.481 2.063-2.15 2.975-2.3.281-.387.937-1.225 1.337-1.525C7.937 7 6.25 7 5.75 7c1.037-1.613 3.875-1.656 5.038-1.425.443-.15 1.668-.45 2.974-.45"/>
    <path fill="#fff" d="M17.625 8.1a6.42 6.42 0 0 0-8.125.775h1.156c.731 0 1.425-.775 3.044-.775 1.294 0 2.387.312 2.769.469.387-.063 1.156-.25 1.156-.47M7.462 15.675c0-1.206.525-3.263.788-4.138-1.525-1.075-1.2 3.544-1.25 3.82-.044.28.325.518.462.318M7 12v-1.25c-.588 0-.656.831-.613 1.25zm-.625 1.875V12c-.588 0-.656 1.25-.613 1.875z"/>
    <path fill="#fff" d="M18.875 7.356c-4.7-3.287-9.044-.775-10.625.894h.525c.812-.575 2.994-1.719 5.15-1.719s3.744.863 4.269 1.288c.225-.107.681-.35.681-.463"/>
</svg>
